recipes/mysms/icon.svg

<svg height="80" viewBox="0 0 80 67" width="80" xmlns="http://www.w3.org/2000/svg"><g fill="none" fill-rule="evenodd"><path d="m2.68921569 2.98431373c1.67058823-1.78725491 4.08235294-2.84313726 6.5245098-2.90196079 20.49117651-.00294118 40.98333331.00098039 61.47450981-.00196078 1.895098.03333333 3.7882353.62941176 5.3215686 1.75294117 2.427451 1.7009804 3.9313726 4.61862745 3.9588236 7.57745098.0117647 9.28137259.0009803 18.56274509.0049019 27.84411769-.0078431 1.0519607.0509804 2.117647-.1833333 3.1529411-.5490196 2.9235294-2.5764706 5.5137255-5.2715686 6.7676471-1.25.6156863-2.6450981.8519608-4.0284314.8852941-5.5705883.0127451-11.1431373-.0156863-16.7137255.0137255-4.2147059 5.7882353-8.4598039 11.5519608-12.6843137 17.3323529-.3333334.4303922-.6147059.9039216-1.0039216 1.2882353-.0382353-6.2088235 0-12.4186274-.0196078-18.6274509-10.1215687-.0117647-20.2421569-.0009804-30.36372554-.0058824-1.0254902-.0382353-2.06176471-.1029412-3.04313725-.4333333-1.80196079-.5539216-3.39803922-1.6921569-4.56960785-3.1617647-1.1990196-1.5215687-1.91862745-3.4127451-2.03529411-5.3460785-.02843138-.8833333-.01078432-1.7666666-.01568628-2.65.00196078-8.9549019-.00294118-17.9098039.00196078-26.86372545-.01568627-2.4382353.95000001-4.86960785 2.64607844-6.62254902z" fill="#14a1cf"/><g fill="#feffff"><path d="m52.3068627 7.81372549c1.0647059-.35882353 2.2656863-.61764706 3.354902-.21666667.7696078.28333334 1.1931373 1.07156863 1.3637255 1.83137255.504902 2.05196083.6441176 4.16960783.8647059 6.26470593.3715686 3.5343137.9921568 7.0421568 1.8029412 10.5009803.4686274-.8264705.7823529-1.7284313 1.1578431-2.5990196 1.2333333-3.1107843 2.5647059-6.1892156 3.5490196-9.3911764.4058824-1.3450981.7637255-2.7411765 1.5794118-3.909804.9666666-1.36372544 2.4352941-2.38039211 4.0627451-2.77156858.6539215-.0627451 1.4088235-.15784314 1.9666666.27058823.427451.32745099.4833334.92450981.4294118 1.42156863-.0813726.59019608-.2411765 1.16764702-.4107843 1.73823532-.5843137 1.8872549-1.3343137 3.717647-2.1 5.5372549-.9588235 2.2333333-1.9931373 4.4333333-3.1127451 6.5892157-1.6009804 3.2372549-3.4294118 6.3872549-5.7254902 9.1852941-1.3607843 1.6980392-2.9009804 3.2509804-4.5843137 4.6294117-1.2539216 1.0078432-2.5803922 1.9431373-4.0343138 2.6401961-1.1980392.5637255-2.5049019 1.0029412-3.845098.9343138-.3176471-.009804-.6539216-.1509804-.8235294-.4284314-.1833333-.3568628-.1284314-.772549-.072549-1.1519608.2-1.2186275.6774509-2.3960784 1.3882353-3.4068628.8039215-1.0147058 1.9127451-1.7323529 3.0431372-2.3372549.7960784-.4529411 1.6382353-.817647 2.4598039-1.2215686-.0705882-.2029412-.1598039-.4-.2705882-.5833333-1.1343137-1.8784314-2.2392157-3.7803922-3.1323529-5.7882353-1.3450981-2.9372549-2.4392157-6.0509804-2.6558824-9.2970588-.0588235-1.6215687-.0127451-3.2656863.3882353-4.8450981.2009804-.7892157.4794118-1.59215683 1.0401961-2.20196075.6049019-.69411765 1.4490196-1.12254902 2.3166666-1.39313726z"/><path d="m26.4705882 9.80294118c1.1588236-1.05 2.5156863-2.05588236 4.1205883-2.21372549.8872549-.10784314 1.7627451.28627451 2.3754902.91470588 1.0686274 1.04019608 1.5568627 2.65098043 1.2186274 4.10784313-.4911765 2.0803922-1.2568627 4.0813726-1.9529412 6.0990196-.1215686.3352941-.2549019.6686275-.3166666 1.022549.5205882-.3431372.9107843-.8392157 1.372549-1.2509804 1.2421569-1.1078431 2.3872549-2.3166666 3.5764706-3.4794117.8627451-.8382353 1.6156863-1.7843137 2.5333333-2.5647059.8333333-.7656863 1.8588235-1.5323529 3.0558824-1.4323529.9313725-.0392157 1.8931372.4088235 2.395098 1.2068627.3970588.5745098.5578431 1.2686274.6676471 1.9480392.1421568 1.6970588-.109804 3.3901961-.3480392 5.0676471-.25 2.1843137-.4960785 4.3705882-.6166667 6.5666666-.1254902 2.054902.2235294 4.1019608.6843137 6.0960785.1245098.7078431.322549 1.4068627.3794118 2.1245098-.1558824.617647-.6401961 1.0892157-1.1686275 1.4107843-.8088235.472549-1.7421568.7519608-2.6833333.7215686-1.1441177.0245098-2.2460784-.4539216-3.1343137-1.1509804-.759804-.577451-1.4019608-1.3098039-1.8892157-2.1294117-.7529412-1.2754902-.9333334-2.7901961-.9686275-4.2441177-.145098-2.2235294.1990196-4.4401961.2343138-6.6598039-.6862746.8205882-1.4637255 1.5578431-2.1980393 2.3343137-1.2647058 1.2519608-2.4990196 2.5333333-3.7666666 3.782353-.8647059.867647-1.6950981 1.772549-2.6313726 2.5656862-.7352941.6313726-1.5990196 1.2362745-2.6058823 1.259804-.6627451.0382352-1.3480392-.027451-1.9372549-.3558824-1.254902-.6303922-2.0519608-2.0156863-2.0519608-3.4088235-.0627451-1.8990196.6882353-3.6882353 1.3196078-5.4411765.2470588-.7284314.5990196-1.4186275.8284314-2.1519608-.2921569.1784314-.5156863.4392157-.7490196.6833333-1.0529412 1.1401961-2.1009804 2.2833334-3.1137255 3.459804-1.3990196 1.6343137-2.7745098 3.2941176-4.2980392 4.8156862-.9401961.8637255-1.9196079 1.7931373-3.1803922 2.1441177-.9803921.204902-2.07843135-.054902-2.80392154-.7627451-.65-.6039216-1.02254902-1.4480392-1.21372549-2.3009804-.21862745-1.0460784-.2-2.1323529-.01764706-3.1823529.22941176-1.3352942.59509804-2.6450981 1.02254902-3.9294118.65392157-2.0333333 1.43823527-4.022549 2.26666667-5.9901961.7323529-1.6833333 1.4411765-3.3872549 2.3882353-4.9656863.7882353-1.22647055 1.9392157-2.36274505 3.4254902-2.63137251.7333333-.05 1.5039216-.09019607 2.2019608.18529412.572549.21470588 1.1107843.58235294 1.4352941 1.10980392.3205882.53039216.2431372 1.17843137.2019608 1.76764707-.3392157 2.5196078-1.4235294 4.845098-2.2411765 7.2294118-.1215686.3470588-.2490196.6941176-.3127451 1.0568627.1480392-.104902.2901961-.2205882.4107843-.3568627 1.8656863-2.0980393 3.5911765-4.3166667 5.4637255-6.4088236.8470588-.9147059 1.6705882-1.8568627 2.6215686-2.66862742z"/></g></g></svg>

<?xml version="1.0" encoding="UTF-8" standalone="no"?>
<svg width="80" height="80" viewBox="0 0 80 67" version="1.1" xmlns="http://www.w3.org/2000/svg" xmlns:xlink="http://www.w3.org/1999/xlink">
    <!-- Generator: Sketch 3.8.2 (29753) - http://www.bohemiancoding.com/sketch -->
    <title>mysms (1)</title>
    <desc>Created with Sketch.</desc>
    <defs></defs>
    <g id="Page-1" stroke="none" stroke-width="1" fill="none" fill-rule="evenodd">
        <g id="mysms-(1)">
            <path d="M2.68921569,2.98431373 C4.35980392,1.19705882 6.77156863,0.141176471 9.21372549,0.0823529412 C29.704902,0.0794117647 50.1970588,0.0833333333 70.6882353,0.0803921569 C72.5833333,0.11372549 74.4764706,0.709803922 76.0098039,1.83333333 C78.4372549,3.53431373 79.9411765,6.45196078 79.9686275,9.41078431 C79.9803922,18.6921569 79.9696078,27.9735294 79.9735294,37.254902 C79.9656863,38.3068627 80.0245098,39.372549 79.7901961,40.4078431 C79.2411765,43.3313725 77.2137255,45.9215686 74.5186275,47.1754902 C73.2686275,47.7911765 71.8735294,48.027451 70.4901961,48.0607843 C64.9196078,48.0735294 59.3470588,48.045098 53.7764706,48.0745098 C49.5617647,53.8627451 45.3166667,59.6264706 41.0921569,65.4068627 C40.7588235,65.8372549 40.477451,66.3107843 40.0882353,66.695098 C40.05,60.4862745 40.0882353,54.2764706 40.0686275,48.0676471 C29.9470588,48.0558824 19.8264706,48.0666667 9.70490196,48.0617647 C8.67941176,48.0235294 7.64313725,47.9588235 6.66176471,47.6284314 C4.85980392,47.0745098 3.26372549,45.9362745 2.09215686,44.4666667 C0.893137255,42.945098 0.173529412,41.0539216 0.0568627451,39.1205882 C0.0284313725,38.2372549 0.0460784314,37.3539216 0.0411764706,36.4705882 C0.0431372549,27.5156863 0.0382352941,18.5607843 0.0431372549,9.60686275 C0.0274509804,7.16862745 0.993137255,4.7372549 2.68921569,2.98431373 L2.68921569,2.98431373 Z" id="Shape" fill="#14A1CF"></path>
            <path d="M52.3068627,7.81372549 C53.3715686,7.45490196 54.572549,7.19607843 55.6617647,7.59705882 C56.4313725,7.88039216 56.854902,8.66862745 57.0254902,9.42843137 C57.5303922,11.4803922 57.6696078,13.5980392 57.8901961,15.6931373 C58.2617647,19.227451 58.8823529,22.7352941 59.6931373,26.1941176 C60.1617647,25.3676471 60.4754902,24.4656863 60.8509804,23.595098 C62.0843137,20.4843137 63.4156863,17.4058824 64.4,14.2039216 C64.8058824,12.8588235 65.1637255,11.4627451 65.9794118,10.2941176 C66.9460784,8.93039216 68.4147059,7.91372549 70.0421569,7.52254902 C70.6960784,7.45980392 71.4509804,7.36470588 72.0088235,7.79313725 C72.4362745,8.12058824 72.4921569,8.71764706 72.4382353,9.21470588 C72.3568627,9.80490196 72.1970588,10.3823529 72.027451,10.9529412 C71.4431373,12.8401961 70.6931373,14.6705882 69.927451,16.4901961 C68.9686275,18.7235294 67.9343137,20.9235294 66.8147059,23.0794118 C65.2137255,26.3166667 63.3852941,29.4666667 61.0892157,32.2647059 C59.7284314,33.9627451 58.1882353,35.5156863 56.504902,36.8941176 C55.2509804,37.9019608 53.9245098,38.8372549 52.4705882,39.5343137 C51.272549,40.0980392 49.9656863,40.5372549 48.6254902,40.4686275 C48.3078431,40.4588235 47.9715686,40.3176471 47.8019608,40.0401961 C47.6186275,39.6833333 47.6735294,39.2676471 47.7294118,38.8882353 C47.9294118,37.6696078 48.4068627,36.4921569 49.1176471,35.4813725 C49.9215686,34.4666667 51.0303922,33.7490196 52.1607843,33.1441176 C52.9568627,32.6911765 53.7990196,32.3264706 54.6205882,31.922549 C54.55,31.7196078 54.4607843,31.522549 54.35,31.3392157 C53.2156863,29.4607843 52.1107843,27.5588235 51.2176471,25.5509804 C49.872549,22.6137255 48.7784314,19.5 48.5617647,16.2539216 C48.5029412,14.6323529 48.5490196,12.9882353 48.95,11.4088235 C49.1509804,10.6196078 49.4294118,9.81666667 49.9901961,9.20686275 C50.595098,8.5127451 51.4392157,8.08431373 52.3068627,7.81372549 L52.3068627,7.81372549 Z" id="Shape" fill="#FEFFFF"></path>
            <path d="M26.4705882,9.80294118 C27.6294118,8.75294118 28.9862745,7.74705882 30.5911765,7.58921569 C31.4784314,7.48137255 32.3539216,7.8754902 32.9666667,8.50392157 C34.0352941,9.54411765 34.5235294,11.154902 34.1852941,12.6117647 C33.6941176,14.6921569 32.9284314,16.6931373 32.2323529,18.7107843 C32.1107843,19.0460784 31.977451,19.3794118 31.9156863,19.7333333 C32.4362745,19.3901961 32.8264706,18.8941176 33.2882353,18.4823529 C34.5303922,17.3745098 35.6754902,16.1656863 36.8647059,15.0029412 C37.727451,14.1647059 38.4803922,13.2186275 39.3980392,12.4382353 C40.2313725,11.672549 41.2568627,10.9058824 42.4539216,11.0058824 C43.3852941,10.9666667 44.3470588,11.4147059 44.8490196,12.2127451 C45.2460784,12.7872549 45.4068627,13.4813725 45.5166667,14.1607843 C45.6588235,15.8578431 45.4068627,17.5509804 45.1686275,19.2284314 C44.9186275,21.4127451 44.672549,23.5990196 44.5519608,25.795098 C44.4264706,27.85 44.7754902,29.8970588 45.2362745,31.8911765 C45.3607843,32.5990196 45.5588235,33.2980392 45.6156863,34.0156863 C45.4598039,34.6333333 44.9754902,35.104902 44.4470588,35.4264706 C43.6382353,35.8990196 42.704902,36.1784314 41.7637255,36.1480392 C40.6196078,36.172549 39.5176471,35.6941176 38.6294118,34.9970588 C37.8696078,34.4196078 37.227451,33.6872549 36.7401961,32.8676471 C35.9872549,31.5921569 35.8068627,30.077451 35.7715686,28.6235294 C35.6264706,26.4 35.9705882,24.1833333 36.0058824,21.9637255 C35.3196078,22.7843137 34.5421569,23.5215686 33.8078431,24.2980392 C32.5431373,25.55 31.3088235,26.8313725 30.0411765,28.0803922 C29.1764706,28.9480392 28.3460784,29.8529412 27.4098039,30.6460784 C26.6745098,31.277451 25.8107843,31.8823529 24.8039216,31.9058824 C24.1411765,31.9441176 23.4558824,31.8784314 22.8666667,31.55 C21.6117647,30.9196078 20.8147059,29.5343137 20.8147059,28.1411765 C20.7519608,26.2421569 21.5029412,24.4529412 22.1343137,22.7 C22.3813725,21.9715686 22.7333333,21.2813725 22.9627451,20.5480392 C22.6705882,20.7264706 22.4470588,20.9872549 22.2137255,21.2313725 C21.1607843,22.3715686 20.1127451,23.5147059 19.1,24.6911765 C17.7009804,26.3254902 16.3254902,27.9852941 14.8019608,29.5068627 C13.8617647,30.3705882 12.8823529,31.3 11.6215686,31.6509804 C10.6411765,31.8558824 9.54313725,31.5960784 8.81764706,30.8882353 C8.16764706,30.2843137 7.79509804,29.4401961 7.60392157,28.5872549 C7.38529412,27.5411765 7.40392157,26.454902 7.58627451,25.404902 C7.81568627,24.0696078 8.18137255,22.7598039 8.60882353,21.4754902 C9.2627451,19.4421569 10.0470588,17.4529412 10.8754902,15.4852941 C11.6078431,13.8019608 12.3166667,12.0980392 13.2637255,10.5196078 C14.0519608,9.29313725 15.2029412,8.15686275 16.6892157,7.88823529 C17.422549,7.83823529 18.1931373,7.79803922 18.8911765,8.07352941 C19.4637255,8.28823529 20.0019608,8.65588235 20.3264706,9.18333333 C20.6470588,9.71372549 20.5696078,10.3617647 20.5284314,10.9509804 C20.1892157,13.4705882 19.104902,15.7960784 18.2872549,18.1803922 C18.1656863,18.527451 18.0382353,18.8745098 17.9745098,19.2372549 C18.122549,19.1323529 18.2647059,19.0166667 18.3852941,18.8803922 C20.2509804,16.7823529 21.9764706,14.5637255 23.8490196,12.4715686 C24.6960784,11.5568627 25.5196078,10.6147059 26.4705882,9.80294118 L26.4705882,9.80294118 Z" id="Shape" fill="#FEFFFF"></path>
        </g>
    </g>
</svg>
